fs/keyboard_layout_resize_24_filled.svg

<svg viewBox="0 0 24 24" fill="none" xmlns="http://www.w3.org/2000/svg" height="1em" width="1em">
  <path d="M21.25 10.5C21.6297 10.5 21.9435 10.7822 21.9932 11.1482L22 11.25V19.75C22 20.9409 21.0748 21.9156 19.904 21.9948L19.75 22H17.75C17.3358 22 17 21.6642 17 21.25C17 20.8703 17.2822 20.5565 17.6482 20.5068L17.75 20.5H19.75C20.1297 20.5 20.4435 20.2178 20.4932 19.8518L20.5 19.75V11.25C20.5 10.8358 20.8358 10.5 21.25 10.5ZM21.25 2L21.3195 2.00317L21.4214 2.01973L21.4893 2.03898L21.5481 2.0616L21.619 2.09686L21.7014 2.15097L21.7816 2.22092L21.8324 2.27734L21.8774 2.33883L21.9277 2.42823L21.9442 2.46563L21.9677 2.53184C21.9791 2.56893 21.9877 2.60808 21.9932 2.64823L22 2.75V7.75C22 8.16421 21.6642 8.5 21.25 8.5C20.8703 8.5 20.5565 8.21785 20.5068 7.85177L20.5 7.75V4.56L16.0303 9.03033C15.7374 9.32322 15.2626 9.32322 14.9697 9.03033C14.7034 8.76406 14.6792 8.3474 14.8971 8.05379L14.9697 7.96967L19.438 3.5H16.25C15.8703 3.5 15.5565 3.21785 15.5068 2.85177L15.5 2.75C15.5 2.3703 15.7822 2.05651 16.1482 2.00685L16.25 2H21.25ZM13.25 10.5C14.4409 10.5 15.4156 11.4252 15.4948 12.596L15.5 12.75V19.75C15.5 20.9409 14.5748 21.9156 13.404 21.9948L13.25 22H4.25C3.05914 22 2.08436 21.0748 2.00519 19.904L2 19.75V12.75C2 11.5591 2.92516 10.5844 4.09595 10.5052L4.25 10.5H13.25ZM10.75 17.5H6.75C6.34 17.5 6 17.8703 6 18.25C6 18.6297 6.28215 18.9435 6.64823 18.9932L6.75 19H10.75C11.16 19 11.5 18.6297 11.5 18.25C11.5 17.8703 11.2178 17.5565 10.8518 17.5068L10.75 17.5ZM6 13.5C5.44772 13.5 5 13.9477 5 14.5C5 15.0523 5.44772 15.5 6 15.5C6.55228 15.5 7 15.0523 7 14.5C7 13.9477 6.55228 13.5 6 13.5ZM11.5 13.5C10.9477 13.5 10.5 13.9477 10.5 14.5C10.5 15.0523 10.9477 15.5 11.5 15.5C12.0523 15.5 12.5 15.0523 12.5 14.5C12.5 13.9477 12.0523 13.5 11.5 13.5ZM8.75 13.5C8.19772 13.5 7.75 13.9477 7.75 14.5C7.75 15.0523 8.19772 15.5 8.75 15.5C9.30228 15.5 9.75 15.0523 9.75 14.5C9.75 13.9477 9.30228 13.5 8.75 13.5ZM12.75 2C13.1642 2 13.5 2.33579 13.5 2.75C13.5 3.1297 13.2178 3.44349 12.8518 3.49315L12.75 3.5H4.25C3.8703 3.5 3.55651 3.78215 3.50685 4.14823L3.5 4.25V8.25C3.5 8.66421 3.16421 9 2.75 9C2.3703 9 2.05651 8.71785 2.00685 8.35177L2 8.25V4.25C2 3.05914 2.92516 2.08436 4.09595 2.00519L4.25 2H12.75Z" fill="#212121"/>
</svg>

<svg viewBox="0 0 24 24" fill="none" xmlns="http://www.w3.org/2000/svg" height="1em" width="1em">
  <path d="M21.25 10.5a.75.75 0 0 1 .743.648l.007.102v8.5a2.25 2.25 0 0 1-2.096 2.245L19.75 22h-2a.75.75 0 0 1-.102-1.493l.102-.007h2a.75.75 0 0 0 .743-.648l.007-.102v-8.5a.75.75 0 0 1 .75-.75Zm0-8.5.07.003.101.017.068.019.06.023.07.035.082.054.08.07.051.056.045.062.05.09.017.037.024.066c.011.037.02.076.025.116L22 2.75v5a.75.75 0 0 1-1.493.102L20.5 7.75V4.56l-4.47 4.47a.75.75 0 0 1-1.133-.976l.073-.084 4.468-4.47H16.25a.75.75 0 0 1-.743-.648L15.5 2.75a.75.75 0 0 1 .648-.743L16.25 2h5Zm-8 8.5a2.25 2.25 0 0 1 2.245 2.096l.005.154v7a2.25 2.25 0 0 1-2.096 2.245L13.25 22h-9a2.25 2.25 0 0 1-2.245-2.096L2 19.75v-7a2.25 2.25 0 0 1 2.096-2.245l.154-.005h9Zm-2.5 7h-4c-.41 0-.75.37-.75.75s.282.694.648.743L6.75 19h4c.41 0 .75-.37.75-.75a.75.75 0 0 0-.648-.743l-.102-.007ZM6 13.5a1 1 0 1 0 0 2 1 1 0 0 0 0-2Zm5.5 0a1 1 0 1 0 0 2 1 1 0 0 0 0-2Zm-2.75 0a1 1 0 1 0 0 2 1 1 0 0 0 0-2Zm4-11.5a.75.75 0 0 1 .102 1.493l-.102.007h-8.5a.75.75 0 0 0-.743.648L3.5 4.25v4a.75.75 0 0 1-1.493.102L2 8.25v-4a2.25 2.25 0 0 1 2.096-2.245L4.25 2h8.5Z" fill="#212121"/>
</svg>
